X: 305770
M: 6/8
L: 1/8
K: Em
d |\
e3 b2a | gfe ^def | gfe fe^d | efg B2B |\
e3 b2a | gfe ^def | gfe edc | BGE E2 H|]


